teeny/outline/battery-charge.svg

<svg width="15" height="15" viewBox="0 0 15 15" fill="none" xmlns="http://www.w3.org/2000/svg">
<path d="M12.5 11.5H12H12.5ZM11.5 12.5V13V12.5ZM11.5 2.5V2V2.5ZM12.5 3.5H13H12.5ZM0.5 3.5H0H0.5ZM1.5 2.5V3V2.5ZM0.5 11.5H1H0.5ZM1.5 12.5V12V12.5ZM6.5 9.5L6.27639 9.94721C6.43139 10.0247 6.61546 10.0164 6.76287 9.92533C6.91027 9.83422 7 9.67329 7 9.5H6.5ZM6.5 5.5L6.72361 5.05279C6.56861 4.97529 6.38454 4.98357 6.23713 5.07467C6.08973 5.16578 6 5.32671 6 5.5H6.5ZM1 11.5L1 3.5H0L3.57628e-07 11.5H1ZM1.5 3L11.5 3V2L1.5 2V3ZM12 3.5V11.5H13V3.5H12ZM11.5 12H1.5V13H11.5V12ZM12 11.5C12 11.7761 11.7761 12 11.5 12V13C12.3284 13 13 12.3284 13 11.5H12ZM11.5 3C11.7761 3 12 3.22386 12 3.5H13C13 2.67157 12.3284 2 11.5 2V3ZM1 3.5C1 3.22386 1.22386 3 1.5 3V2C0.671573 2 -5.96046e-08 2.67157 0 3.5H1ZM3.57628e-07 11.5C3.8743e-07 12.3284 0.671573 13 1.5 13V12C1.22386 12 1 11.7761 1 11.5H3.57628e-07ZM15 10L15 5H14L14 10H15ZM2.27639 7.94721L6.27639 9.94721L6.72361 9.05279L2.72361 7.05279L2.27639 7.94721ZM7 9.5V5.5H6V9.5H7ZM6.27639 5.94721L10.2764 7.94721L10.7236 7.05279L6.72361 5.05279L6.27639 5.94721Z" fill="black"/>
</svg>

<svg viewBox="0 0 15 15" xmlns="http://www.w3.org/2000/svg"><path d="M12.5 11.5H12h.5Zm-1 1v.5 -.5Zm0-10V2v.5Zm1 1h.5 -.5Zm-12 0H0h.5Zm1-1V3v-.5Zm-1 9H1 .5Zm1 1V12v.5Zm5-3l-.23.44c.15.07.33.06.48-.03 .14-.1.23-.26.23-.43h-.5Zm0-4l.22-.45c-.16-.08-.34-.07-.49.02 -.15.09-.24.25-.24.42h.5Zm-5.5 6v-8H0l0 8h.99ZM1.5 3h10V2h-10v1Zm10.5.5v8h1v-8h-1Zm-.5 8.5h-10v1h10v-1Zm.5-.5c0 .27-.23.5-.5.5v1c.82 0 1.5-.68 1.5-1.5h-1ZM11.5 3c.27 0 .5.22.5.5h1c0-.83-.68-1.5-1.5-1.5v1ZM1 3.5c0-.28.22-.5.5-.5V2C.67 2 0 2.67 0 3.5h1Zm-1 8c0 .82.67 1.5 1.49 1.5v-1c-.28 0-.5-.23-.5-.5h-1ZM15 10V5h-1v5h1ZM2.27 7.94l4 2 .44-.9 -4-2 -.45.89Zm4.72 1.55v-4h-1v4h1Zm-.73-3.56l4 2 .44-.9 -4-2 -.45.89Z"/></svg>
